packages/kaspersky-hexa-ui-icons/src/iconsSVGs/16/StatusWaiting.svg

<svg width="16" height="16" viewBox="0 0 16 16" fill="none" xmlns="http://www.w3.org/2000/svg">
<path fill-rule="evenodd" clip-rule="evenodd" d="M7.99995 8.83073C7.97452 8.86133 7.9476 8.89087 7.91924 8.91924L5.50503 11.3335C5.37375 11.4647 5.3 11.6428 5.3 11.8284V13.7H10.7V11.8284C10.7 11.6428 10.6263 11.4647 10.495 11.3335L8.08076 8.91924C8.05222 8.8907 8.02528 8.86116 7.99995 8.83073ZM7.99995 7.16927C8.02528 7.13884 8.05222 7.1093 8.08076 7.08076L10.495 4.66655C10.6263 4.53527 10.7 4.35722 10.7 4.17157V2.3H5.3V4.17157C5.3 4.35722 5.37375 4.53527 5.50503 4.66655L7.91924 7.08076C7.9476 7.10913 7.97452 7.13867 7.99995 7.16927ZM7 8L4.58579 5.58579C4.21071 5.21071 4 4.70201 4 4.17157V2C4 1.44772 4.44772 1 5 1H11C11.5523 1 12 1.44772 12 2V4.17157C12 4.70201 11.7893 5.21071 11.4142 5.58579L9 8L11.4142 10.4142C11.7893 10.7893 12 11.298 12 11.8284V14C12 14.5523 11.5523 15 11 15H5C4.44772 15 4 14.5523 4 14V11.8284C4 11.298 4.21071 10.7893 4.58579 10.4142L7 8Z" fill="black"/>
</svg>

<svg xmlns="http://www.w3.org/2000/svg" width="16" height="16" fill="none" viewBox="0 0 16 16"><path fill="#000" fill-rule="evenodd" d="M8 8.8307a1.3 1.3 0 0 1-.0808.0885L5.505 11.3335a.7.7 0 0 0-.205.4949V13.7h5.4v-1.8716a.7.7 0 0 0-.205-.4949L8.0808 8.9192A1.3 1.3 0 0 1 8 8.8307m0-1.6614q.038-.0458.0808-.0885l2.4142-2.4142a.7.7 0 0 0 .205-.495V2.3H5.3v1.8716a.7.7 0 0 0 .205.495l2.4142 2.4142q.0426.0425.0808.0885M7 8 4.5858 5.5858A2 2 0 0 1 4 4.1716V2c0-.5523.4477-1 1-1h6c.5523 0 1 .4477 1 1v2.1716a2 2 0 0 1-.5858 1.4142L9 8l2.4142 2.4142A2 2 0 0 1 12 11.8284V14c0 .5523-.4477 1-1 1H5c-.5523 0-1-.4477-1-1v-2.1716a2 2 0 0 1 .5858-1.4142z"/></svg>
